X:1
T:Farewell to Balfour Road (96 bar Jig)
T:Farewell to Balfour Road (96 bar Jig)
T:Miss Ogilvy of Islabank's Jigg
T:Charles Duff Collection (1792)
C:Charles Duff Collection (1792)
L:1/8
M:6/8
K:A
V:1 treble 
V:1
|: c/B/ |"^A" ABA ECE |"^A" ABA"^C#/A7" ABc |"^D" def"^Bm" edc |"^E" dBB"^G#/E7" B2 c/B/ | %5
"^A" ABA ECE |"^A" ABA"^F#m" ABc |"^D" def"^E7" efd |"^A" cAA"^A" A2 x :| c/d/ | %10
"^A" efe"^C#/A7" efg |"^D" agf"^C#/A" edc |"^D" dfd"^A" cec |"^Bm" fdB"^E7" B2 c/d/ | %14
"^E" efe"^G#/E7" efg |"^A" agf"^F#m" edc |"^D" def"^E7" efg |"^A" aAA"^A" A2"^E7" c/d/ | %18
"^A" efe"^C#/A7" efg |"^D" agf"^C#/A" edc |"^D" dfd"^A" cec |"^Bm" fdB"^E7" B2 c/B/ | %22
"^A" ABA"^C#m" ECE |"^F#m" ABA"^E/A7" ABc |"^D" def"^E7" efd |"^A" cAA A2 x || %26

